client/img/icon-ig.svg

<?xml version="1.0" encoding="UTF-8"?>
<svg width="31px" height="31px" viewBox="0 0 31 31" version="1.1" xmlns="http://www.w3.org/2000/svg" xmlns:xlink="http://www.w3.org/1999/xlink">
    <!-- Generator: Sketch 42 (36781) - http://www.bohemiancoding.com/sketch -->
    <title>icon-ig</title>
    <desc>Created with Sketch.</desc>
    <defs></defs>
    <g id="Mockups" stroke="none" stroke-width="1" fill="none" fill-rule="evenodd">
        <g id="Assets" transform="translate(-86.000000, -273.000000)">
            <g id="icon-ig" transform="translate(86.000000, 273.000000)">
                <ellipse id="Oval-3-Copy" fill="#FFFFFF" opacity="0.5" cx="15.5" cy="15.5" rx="14.5" ry="14.5"></ellipse>
                <path d="M20.296875,23.515625 L11.1875,23.515625 C10.7187477,23.515625 10.2760437,23.4270842 9.859375,23.25 C9.44270625,23.0729158 9.07812656,22.8281266 8.765625,22.515625 C8.45312344,22.2031234 8.20573008,21.8385437 8.0234375,21.421875 C7.84114492,21.0052063 7.75,20.5572941 7.75,20.078125 L7.75,11.421875 C7.75,10.9531227 7.84114492,10.5104187 8.0234375,10.09375 C8.20573008,9.67708125 8.45312344,9.31250156 8.765625,9 C9.07812656,8.68749844 9.44270625,8.44010508 9.859375,8.2578125 C10.2760437,8.07551992 10.7187477,7.984375 11.1875,7.984375 L20.296875,7.984375 C20.7656273,7.984375 21.2083313,8.07551992 21.625,8.2578125 C22.0416688,8.44010508 22.4062484,8.68749844 22.71875,9 C23.0312516,9.31250156 23.2786449,9.67708125 23.4609375,10.09375 C23.6432301,10.5104187 23.734375,10.9531227 23.734375,11.421875 L23.734375,20.078125 C23.734375,20.5572941 23.6432301,21.0052063 23.4609375,21.421875 C23.2786449,21.8385437 23.0312516,22.2031234 22.71875,22.515625 C22.4062484,22.8281266 22.0416688,23.0729158 21.625,23.25 C21.2083313,23.4270842 20.7656273,23.515625 20.296875,23.515625 Z M11.1875,9.125 C10.5624969,9.125 10.0234398,9.35156023 9.5703125,9.8046875 C9.11718523,10.2578148 8.890625,10.7968719 8.890625,11.421875 L8.890625,20.078125 C8.890625,20.7135448 9.11718523,21.2552061 9.5703125,21.703125 C10.0234398,22.1510439 10.5624969,22.375 11.1875,22.375 L20.296875,22.375 C20.9218781,22.375 21.4609352,22.1510439 21.9140625,21.703125 C22.3671898,21.2552061 22.59375,20.7135448 22.59375,20.078125 L22.59375,11.421875 C22.59375,10.7968719 22.3671898,10.2578148 21.9140625,9.8046875 C21.4609352,9.35156023 20.9218781,9.125 20.296875,9.125 L11.1875,9.125 Z M18.9375,10.859375 C18.9375,10.6927075 18.9947911,10.554688 19.109375,10.4453125 C19.2239589,10.335937 19.3593742,10.28125 19.515625,10.28125 L20.5,10.28125 C20.6562508,10.28125 20.789062,10.335937 20.8984375,10.4453125 C21.007813,10.554688 21.0625,10.6927075 21.0625,10.859375 L21.0625,11.828125 C21.0625,11.9843758 21.007813,12.1197911 20.8984375,12.234375 C20.789062,12.3489589 20.6562508,12.40625 20.5,12.40625 L19.515625,12.40625 C19.3593742,12.40625 19.2239589,12.3489589 19.109375,12.234375 C18.9947911,12.1197911 18.9375,11.9843758 18.9375,11.828125 L18.9375,10.859375 Z M15.734375,13.828125 C15.0781217,13.828125 14.5156273,14.0598935 14.046875,14.5234375 C13.5781227,14.9869815 13.34375,15.55208 13.34375,16.21875 C13.34375,16.8750033 13.5781227,17.4374977 14.046875,17.90625 C14.5156273,18.3750023 15.0781217,18.609375 15.734375,18.609375 C16.401045,18.609375 16.9661435,18.3750023 17.4296875,17.90625 C17.8932315,17.4374977 18.125,16.8750033 18.125,16.21875 C18.125,15.5624967 17.8932315,15.0000023 17.4296875,14.53125 C16.9661435,14.0624977 16.401045,13.828125 15.734375,13.828125 Z M13.2891949,13.671875 C13.5967,13.3710405 13.9560277,13.1314594 14.3671875,12.953125 C14.7994813,12.7656241 15.2552059,12.671875 15.734375,12.671875 C16.2239608,12.671875 16.6848937,12.7656241 17.1171875,12.953125 C17.5283473,13.1314594 17.887675,13.3710405 18.1951801,13.671875 L22.5892181,13.671875 L22.5892181,14.8125 L18.986123,14.8125 C18.9907873,14.8228855 18.9954131,14.8333022 19,14.84375 C19.1875009,15.2708355 19.28125,15.7291642 19.28125,16.21875 C19.28125,16.7083358 19.1875009,17.1666645 19,17.59375 C18.8124991,18.0208355 18.5598974,18.3958317 18.2421875,18.71875 C17.9244776,19.0416683 17.5494813,19.2942699 17.1171875,19.4765625 C16.6848937,19.6588551 16.2239608,19.75 15.734375,19.75 C15.2552059,19.75 14.7994813,19.6588551 14.3671875,19.4765625 C13.9348937,19.2942699 13.5598974,19.0416683 13.2421875,18.71875 C12.9244776,18.3958317 12.6718759,18.0208355 12.484375,17.59375 C12.2968741,17.1666645 12.203125,16.7083358 12.203125,16.21875 C12.203125,15.7291642 12.2968741,15.2708355 12.484375,14.84375 C12.4889619,14.8333022 12.4935877,14.8228855 12.4982525,14.8125 L8.89122009,14.8125 L8.89122009,13.671875 L13.2891949,13.671875 Z" id="Social-instagram---simple-line-icons" fill="#4A4A4A"></path>
                <path d="M15.4853946,30.4864141 C7.20056023,30.4864141 0.484375,23.7702289 0.484375,15.4853946 C0.484375,7.20056023 7.20056023,0.484375 15.4853946,0.484375 C23.7702289,0.484375 30.4864141,7.20056023 30.4864141,15.4853946 C30.4864141,23.7702289 23.7702289,30.4864141 15.4853946,30.4864141 Z M15.4853946,29.5176641 C23.2352031,29.5176641 29.5176641,23.2352031 29.5176641,15.4853946 C29.5176641,7.73558608 23.2352031,1.453125 15.4853946,1.453125 C7.73558608,1.453125 1.453125,7.73558608 1.453125,15.4853946 C1.453125,23.2352031 7.73558608,29.5176641 15.4853946,29.5176641 Z" id="Oval-2" fill="#4A4A4A" fill-rule="nonzero"></path>
            </g>
        </g>
    </g>
</svg>

<svg width="31" height="31" viewBox="0 0 31 31" xmlns="http://www.w3.org/2000/svg"><title>A1070168-2990-459A-9FC1-CAB73BE6E582</title><g fill="#4A4A4A" fill-rule="evenodd"><path d="M20.297 23.516h-9.11a3.425 3.425 0 0 1-2.422-1 3.534 3.534 0 0 1-.742-1.094 3.315 3.315 0 0 1-.273-1.344v-8.656c0-.469.091-.912.273-1.328A3.534 3.534 0 0 1 9.86 8.258c.417-.182.86-.274 1.329-.274h9.109c.469 0 .911.092 1.328.274.417.182.781.43 1.094.742.312.313.56.677.742 1.094.182.416.273.86.273 1.328v8.656c0 .48-.09.927-.273 1.344-.182.417-.43.781-.742 1.094a3.425 3.425 0 0 1-2.422 1zm-9.11-14.391c-.625 0-1.164.227-1.617.68-.453.453-.68.992-.68 1.617v8.656a2.2 2.2 0 0 0 .68 1.625c.453.448.992.672 1.617.672h9.11c.625 0 1.164-.224 1.617-.672a2.2 2.2 0 0 0 .68-1.625v-8.656c0-.625-.227-1.164-.68-1.617a2.209 2.209 0 0 0-1.617-.68h-9.11zm7.75 1.734c0-.166.058-.304.172-.414a.569.569 0 0 1 .407-.164h.984a.561.561 0 0 1 .563.578v.97a.569.569 0 0 1-.165.405.53.53 0 0 1-.398.172h-.984a.555.555 0 0 1-.407-.172.555.555 0 0 1-.172-.406v-.969zm-3.203 2.97c-.656 0-1.218.23-1.687.694a2.294 2.294 0 0 0-.703 1.696c0 .656.234 1.218.703 1.687a2.301 2.301 0 0 0 1.687.703c.667 0 1.232-.234 1.696-.703a2.314 2.314 0 0 0 .695-1.687c0-.657-.232-1.219-.695-1.688a2.294 2.294 0 0 0-1.696-.703zm-2.445-.157c.308-.301.667-.54 1.078-.719a3.4 3.4 0 0 1 1.367-.281c.49 0 .95.094 1.383.281.411.178.77.418 1.078.719h4.394v1.14h-3.603l.014.032c.188.427.281.885.281 1.375s-.093.948-.281 1.375c-.188.427-.44.802-.758 1.125a3.429 3.429 0 0 1-1.125.758 3.522 3.522 0 0 1-1.383.273c-.479 0-.935-.091-1.367-.273a3.429 3.429 0 0 1-1.125-.758 3.721 3.721 0 0 1-.758-1.125 3.382 3.382 0 0 1-.28-1.375 3.382 3.382 0 0 1 .294-1.407H8.891v-1.14h4.398z"/><path d="M15.485 30.486c-8.284 0-15-6.716-15-15C.484 7.2 7.2.483 15.484.483c8.285 0 15.001 6.717 15.001 15.001 0 8.285-6.716 15.001-15 15.001zm0-.968c7.75 0 14.033-6.283 14.033-14.033 0-7.75-6.283-14.032-14.033-14.032-7.75 0-14.032 6.283-14.032 14.032 0 7.75 6.283 14.033 14.032 14.033z" fill-rule="nonzero"/></g></svg>
